X:15
T:La chèvre en parlement
C:Paroles et musique  :tradition bretonne
Z:Transcrit et/ou corrigé par Michel BELLON - 2006-04-28
Z:Pour toute observation mailto:galouvielle@free.fr
M:2/4
L:1/8
K:G
z2zD | "G"DGGG | G3G | "D7"FAAA | A3A | "G"GBBB | BAcA | "C7"G2"D7"F2 | "G"(G2d2) |
DGGG | G3G | "D7"FAAA | A3z | "G"GBBB | BAcA | "C7"G2"D7"F2 | "G"G2 z2 |]

%%footer $D   Galouvielle-MBe 2006 \n-- (--)
